src/assets/icons/text-list-bullet.svg

<svg viewBox="0 0 20 12" xmlns="http://www.w3.org/2000/svg">
<path d="M1.71023 10.29C1.61513 10.199 1.50298 10.1276 1.38023 10.08C1.13677 9.97998 0.863694 9.97998 0.620232 10.08C0.497481 10.1276 0.385336 10.199 0.290233 10.29C0.199192 10.3851 0.127827 10.4972 0.0802325 10.62C0.00365307 10.8021 -0.0172696 11.0028 0.0201045 11.1968C0.0574787 11.3908 0.151475 11.5694 0.290233 11.71C0.387433 11.7983 0.499048 11.8694 0.620232 11.92C0.739933 11.9729 0.869362 12.0002 1.00023 12.0002C1.1311 12.0002 1.26053 11.9729 1.38023 11.92C1.50142 11.8694 1.61303 11.7983 1.71023 11.71C1.84899 11.5694 1.94299 11.3908 1.98036 11.1968C2.01773 11.0028 1.99681 10.8021 1.92023 10.62C1.87264 10.4972 1.80127 10.3851 1.71023 10.29ZM5.00023 2H19.0002C19.2654 2 19.5198 1.89464 19.7073 1.70711C19.8949 1.51957 20.0002 1.26522 20.0002 1C20.0002 0.734784 19.8949 0.48043 19.7073 0.292893C19.5198 0.105357 19.2654 0 19.0002 0H5.00023C4.73502 0 4.48066 0.105357 4.29313 0.292893C4.10559 0.48043 4.00023 0.734784 4.00023 1C4.00023 1.26522 4.10559 1.51957 4.29313 1.70711C4.48066 1.89464 4.73502 2 5.00023 2ZM1.71023 5.29C1.56961 5.15124 1.39104 5.05725 1.19705 5.01987C1.00306 4.9825 0.802343 5.00342 0.620232 5.08C0.499048 5.13064 0.387433 5.20167 0.290233 5.29C0.199192 5.3851 0.127827 5.49725 0.0802325 5.62C0.0273273 5.7397 0 5.86913 0 6C0 6.13087 0.0273273 6.2603 0.0802325 6.38C0.130874 6.50118 0.201902 6.6128 0.290233 6.71C0.387433 6.79833 0.499048 6.86936 0.620232 6.92C0.739933 6.97291 0.869362 7.00023 1.00023 7.00023C1.1311 7.00023 1.26053 6.97291 1.38023 6.92C1.50142 6.86936 1.61303 6.79833 1.71023 6.71C1.79856 6.6128 1.86959 6.50118 1.92023 6.38C1.97314 6.2603 2.00047 6.13087 2.00047 6C2.00047 5.86913 1.97314 5.7397 1.92023 5.62C1.87264 5.49725 1.80127 5.3851 1.71023 5.29ZM19.0002 5H5.00023C4.73502 5 4.48066 5.10536 4.29313 5.29289C4.10559 5.48043 4.00023 5.73478 4.00023 6C4.00023 6.26522 4.10559 6.51957 4.29313 6.70711C4.48066 6.89464 4.73502 7 5.00023 7H19.0002C19.2654 7 19.5198 6.89464 19.7073 6.70711C19.8949 6.51957 20.0002 6.26522 20.0002 6C20.0002 5.73478 19.8949 5.48043 19.7073 5.29289C19.5198 5.10536 19.2654 5 19.0002 5ZM1.71023 0.29C1.61513 0.198959 1.50298 0.127594 1.38023 0.0799999C1.19812 0.00342049 0.997409 -0.0175019 0.803419 0.0198722C0.609429 0.0572463 0.430856 0.151242 0.290233 0.29C0.201902 0.387201 0.130874 0.498815 0.0802325 0.62C0.0273273 0.7397 0 0.869129 0 1C0 1.13087 0.0273273 1.2603 0.0802325 1.38C0.130874 1.50119 0.201902 1.6128 0.290233 1.71C0.387433 1.79833 0.499048 1.86936 0.620232 1.92C0.802343 1.99658 1.00306 2.0175 1.19705 1.98013C1.39104 1.94275 1.56961 1.84876 1.71023 1.71C1.79856 1.6128 1.86959 1.50119 1.92023 1.38C1.97314 1.2603 2.00047 1.13087 2.00047 1C2.00047 0.869129 1.97314 0.7397 1.92023 0.62C1.86959 0.498815 1.79856 0.387201 1.71023 0.29ZM19.0002 10H5.00023C4.73502 10 4.48066 10.1054 4.29313 10.2929C4.10559 10.4804 4.00023 10.7348 4.00023 11C4.00023 11.2652 4.10559 11.5196 4.29313 11.7071C4.48066 11.8946 4.73502 12 5.00023 12H19.0002C19.2654 12 19.5198 11.8946 19.7073 11.7071C19.8949 11.5196 20.0002 11.2652 20.0002 11C20.0002 10.7348 19.8949 10.4804 19.7073 10.2929C19.5198 10.1054 19.2654 10 19.0002 10Z"/>
</svg>

<svg viewBox="0 0 20 12" xmlns="http://www.w3.org/2000/svg">
  <path d="M1.71 10.29a1 1 0 0 0-.33-.21 1 1 0 0 0-.76 0 1 1 0 0 0-.33.21 1 1 0 0 0-.21.33 1 1 0 0 0 .21 1.09c.097.088.209.16.33.21a.94.94 0 0 0 .76 0 1.15 1.15 0 0 0 .33-.21 1 1 0 0 0 .21-1.09 1 1 0 0 0-.21-.33zM5 2h14a1 1 0 1 0 0-2H5a1 1 0 0 0 0 2zM1.71 5.29a1 1 0 0 0-1.09-.21 1.15 1.15 0 0 0-.33.21 1 1 0 0 0-.21.33.94.94 0 0 0 0 .76c.05.121.122.233.21.33.097.088.209.16.33.21a.94.94 0 0 0 .76 0 1.15 1.15 0 0 0 .33-.21 1.15 1.15 0 0 0 .21-.33.94.94 0 0 0 0-.76 1 1 0 0 0-.21-.33zM19 5H5a1 1 0 0 0 0 2h14a1 1 0 1 0 0-2zM1.71.29a1 1 0 0 0-.33-.21A1 1 0 0 0 .29.29a1.15 1.15 0 0 0-.21.33.94.94 0 0 0 0 .76c.05.121.122.233.21.33.097.088.209.16.33.21a1 1 0 0 0 1.09-.21 1.15 1.15 0 0 0 .21-.33.94.94 0 0 0 0-.76 1.15 1.15 0 0 0-.21-.33zM19 10H5a1 1 0 0 0 0 2h14a1 1 0 0 0 0-2z"/>
</svg>
